www/images/connect-1.svg

<svg fill="none" height="75" viewBox="0 0 75 75" width="75" xmlns="http://www.w3.org/2000/svg"><g fill="#fff"><path d="m58.4591 55.3669c5.197-4.0382 8.5409-10.3484 8.5409-17.4395 0-12.1904-9.8823-22.0727-22.0726-22.0727-8.1408 0-15.2523 4.4071-19.0787 10.9657l-2.4098-1.8186c4.3878-7.2791 12.3697-12.1471 21.4885-12.1471 13.8472 0 25.0726 11.2254 25.0726 25.0727 0 13.8472-11.2254 25.0726-25.0726 25.0726-9.0839 0-17.0395-4.8308-21.4379-12.0635l2.4087-1.8177c1.4127 2.3969 3.2654 4.5035 5.447 6.2089l.6505-6.1102c.5786-4.9684 4.6058-8.7315 9.4924-8.7315h6.6165c4.7463 0 8.9139 3.7631 9.4925 8.8784z"/><path d="m44.4128 38.4392c5.0882 0 9.2132-4.1205 9.2132-9.2104 0-5.084-4.125-9.2103-9.2132-9.2103-5.0825 0-9.2075 4.1263-9.2075 9.2103 0 5.0899 4.125 9.2104 9.2075 9.2104z"/><path d="m18.5938 47.7676-12.01616-8.8112c-.77019-.4417-.77019-1.4686 0-1.9103l12.01616-8.8112c.7702-.5909 2.0037 0 2.0037 1.0268v4.6982h10.169c.6198 0 1.2335.4417 1.2335 1.1759v5.8742c0 .5908-.4633 1.176-1.2335 1.176h-10.169v4.5548c0 1.0268-1.2335 1.6119-2.0037 1.0268z"/></g></svg>

<svg width="75" height="75" viewBox="0 0 75 75" fill="none" xmlns="http://www.w3.org/2000/svg">
<path d="M58.4591 55.3669C63.6561 51.3287 67 45.0185 67 37.9274C67 25.737 57.1177 15.8547 44.9274 15.8547C36.7866 15.8547 29.6751 20.2618 25.8487 26.8204L23.4389 25.0018C27.8267 17.7227 35.8086 12.8547 44.9274 12.8547C58.7746 12.8547 70 24.0801 70 37.9274C70 51.7746 58.7746 63 44.9274 63C35.8435 63 27.8879 58.1692 23.4895 50.9365L25.8982 49.1188C27.3109 51.5157 29.1636 53.6223 31.3452 55.3277L31.9957 49.2175C32.5743 44.2491 36.6015 40.486 41.4881 40.486H48.1046C52.8509 40.486 57.0185 44.2491 57.5971 49.3644L58.4591 55.3669Z" fill="white"/>
<path d="M44.4128 38.4392C49.501 38.4392 53.626 34.3187 53.626 29.2288C53.626 24.1448 49.501 20.0185 44.4128 20.0185C39.3303 20.0185 35.2053 24.1448 35.2053 29.2288C35.2053 34.3187 39.3303 38.4392 44.4128 38.4392Z" fill="white"/>
<path d="M18.5938 47.7676L6.57764 38.9564C5.80745 38.5147 5.80745 37.4878 6.57764 37.0461L18.5938 28.2349C19.364 27.644 20.5975 28.2349 20.5975 29.2617V33.9599H30.7665C31.3863 33.9599 32 34.4016 32 35.1358V41.01C32 41.6008 31.5367 42.186 30.7665 42.186H20.5975V46.7408C20.5975 47.7676 19.364 48.3527 18.5938 47.7676Z" fill="white"/>
</svg>
